_site/images/pro/feature-themes.svg

<svg height="80" viewBox="0 0 80 80" width="80" xmlns="http://www.w3.org/2000/svg"><g fill="none" fill-rule="evenodd"><g transform="translate(4 4)"><rect fill="#fdf6e3" fill-rule="evenodd" height="35" rx="9" width="35"/><rect height="34.5" rx="9" stroke="#979797" stroke-width=".5" width="34.5" x=".25" y=".25"/><path d="m16.7988281 24-1.2890625-3.8085938h-5.3710937l-1.28906252 3.8085938h-2.27539063l5.08789065-14.09179688h2.3632812l5.0878906 14.09179688zm-4.0039062-11.7480469-2.0996094 6.1816407h4.2578125l-2.0996094-6.1816407zm11.1621093 10.2246094c1.4941407 0 2.6269532-.9960937 2.6269532-2.3242187v-.7910157l-2.4609375.15625c-1.3671875.078125-2.0898438.6054688-2.0898438 1.4941407 0 .859375.7519531 1.4648437 1.9238281 1.4648437zm-.5859374 1.6699219c-2.0410157 0-3.4570313-1.2597656-3.4570313-3.0859375 0-1.796875 1.3769531-2.8515625 3.9355469-3.0078125l2.734375-.15625v-.78125c0-1.1621094-.7714844-1.7871094-2.109375-1.7871094-1.1035156 0-1.9140625.5664062-2.0800782 1.4453125h-1.9726562c.0585938-1.8359375 1.7773438-3.1738281 4.1113281-3.1738281 2.5195313 0 4.1503907 1.3183594 4.1503907 3.359375v7.0410156h-2.0214844v-1.6894531h-.0488282c-.5761718 1.1035156-1.8554687 1.8359375-3.2421874 1.8359375z" fill="#586e75"/></g><g transform="translate(42 4)"><rect fill="#000" fill-rule="evenodd" height="35" rx="9" width="35"/><rect height="34.5" rx="9" stroke="#979797" stroke-width=".5" width="34.5" x=".25" y=".25"/><path d="m16.7988281 24-1.2890625-3.8085938h-5.3710937l-1.28906252 3.8085938h-2.27539063l5.08789065-14.09179688h2.3632812l5.0878906 14.09179688zm-4.0039062-11.7480469-2.0996094 6.1816407h4.2578125l-2.0996094-6.1816407zm11.1621093 10.2246094c1.4941407 0 2.6269532-.9960937 2.6269532-2.3242187v-.7910157l-2.4609375.15625c-1.3671875.078125-2.0898438.6054688-2.0898438 1.4941407 0 .859375.7519531 1.4648437 1.9238281 1.4648437zm-.5859374 1.6699219c-2.0410157 0-3.4570313-1.2597656-3.4570313-3.0859375 0-1.796875 1.3769531-2.8515625 3.9355469-3.0078125l2.734375-.15625v-.78125c0-1.1621094-.7714844-1.7871094-2.109375-1.7871094-1.1035156 0-1.9140625.5664062-2.0800782 1.4453125h-1.9726562c.0585938-1.8359375 1.7773438-3.1738281 4.1113281-3.1738281 2.5195313 0 4.1503907 1.3183594 4.1503907 3.359375v7.0410156h-2.0214844v-1.6894531h-.0488282c-.5761718 1.1035156-1.8554687 1.8359375-3.2421874 1.8359375z" fill="#fff"/></g><rect fill="#000" fill-rule="evenodd" height="35" rx="9" transform="translate(4 41)" width="35"/><rect height="34.5" rx="9" stroke="#979797" stroke-width=".5" transform="translate(4 41)" width="34.5" x=".25" y=".25"/><g stroke="#fff" stroke-linecap="round" stroke-linejoin="round" transform="translate(14 51)"><path d="m0 4h11.5092561v11.0000033" stroke-width="1.5" transform="matrix(-1 0 0 -1 11.509256 19.000004)"/><path d="m3.5 0h11.5092561v11.0000033" stroke-width="1.5"/><path d="m6 3h6.274213v6.03769658"/></g><rect fill="#f8f8f8" fill-rule="evenodd" height="35" rx="9" transform="translate(42 41)" width="35"/><rect height="34.5" rx="9" stroke="#979797" stroke-width=".5" transform="translate(42 41)" width="34.5" x=".25" y=".25"/><g stroke="#000" stroke-linecap="round" stroke-linejoin="round" transform="translate(52 51)"><path d="m0 4h11.5092561v11.0000033" stroke-width="1.5" transform="matrix(-1 0 0 -1 11.509256 19.000004)"/><path d="m3.5 0h11.5092561v11.0000033" stroke-width="1.5"/><path d="m6 3h6.274213v6.03769658"/></g></g></svg>

<?xml version="1.0" encoding="UTF-8"?>
<svg width="80px" height="80px" viewBox="0 0 80 80" version="1.1" xmlns="http://www.w3.org/2000/svg" xmlns:xlink="http://www.w3.org/1999/xlink">
    <!-- Generator: Sketch 49.2 (51160) - http://www.bohemiancoding.com/sketch -->
    <title>feature-themes</title>
    <desc>Created with Sketch.</desc>
    <defs>
        <rect id="path-1" x="0" y="0" width="35" height="35" rx="9"></rect>
        <rect id="path-2" x="0" y="0" width="35" height="35" rx="9"></rect>
        <rect id="path-3" x="0" y="0" width="35" height="35" rx="9"></rect>
        <rect id="path-4" x="0" y="0" width="35" height="35" rx="9"></rect>
    </defs>
    <g id="feature-themes" stroke="none" stroke-width="1" fill="none" fill-rule="evenodd">
        <g id="Group-4" transform="translate(4.000000, 4.000000)">
            <g id="Rectangle">
                <use fill="#FDF6E3" fill-rule="evenodd" xlink:href="#path-1"></use>
                <rect stroke="#979797" stroke-width="0.5" x="0.25" y="0.25" width="34.5" height="34.5" rx="9"></rect>
            </g>
            <path d="M16.7988281,24 L15.5097656,20.1914062 L10.1386719,20.1914062 L8.84960938,24 L6.57421875,24 L11.6621094,9.90820312 L14.0253906,9.90820312 L19.1132812,24 L16.7988281,24 Z M12.7949219,12.2519531 L10.6953125,18.4335938 L14.953125,18.4335938 L12.8535156,12.2519531 L12.7949219,12.2519531 Z M23.9570312,22.4765625 C25.4511719,22.4765625 26.5839844,21.4804688 26.5839844,20.1523438 L26.5839844,19.3613281 L24.1230469,19.5175781 C22.7558594,19.5957031 22.0332031,20.1230469 22.0332031,21.0117188 C22.0332031,21.8710938 22.7851562,22.4765625 23.9570312,22.4765625 Z M23.3710938,24.1464844 C21.3300781,24.1464844 19.9140625,22.8867188 19.9140625,21.0605469 C19.9140625,19.2636719 21.2910156,18.2089844 23.8496094,18.0527344 L26.5839844,17.8964844 L26.5839844,17.1152344 C26.5839844,15.953125 25.8125,15.328125 24.4746094,15.328125 C23.3710938,15.328125 22.5605469,15.8945312 22.3945312,16.7734375 L20.421875,16.7734375 C20.4804688,14.9375 22.1992188,13.5996094 24.5332031,13.5996094 C27.0527344,13.5996094 28.6835938,14.9179688 28.6835938,16.9589844 L28.6835938,24 L26.6621094,24 L26.6621094,22.3105469 L26.6132812,22.3105469 C26.0371094,23.4140625 24.7578125,24.1464844 23.3710938,24.1464844 Z" id="Aa" fill="#586E75"></path>
        </g>
        <g id="Group-2" transform="translate(42.000000, 4.000000)">
            <g id="Rectangle">
                <use fill="#000000" fill-rule="evenodd" xlink:href="#path-2"></use>
                <rect stroke="#979797" stroke-width="0.5" x="0.25" y="0.25" width="34.5" height="34.5" rx="9"></rect>
            </g>
            <path d="M16.7988281,24 L15.5097656,20.1914062 L10.1386719,20.1914062 L8.84960938,24 L6.57421875,24 L11.6621094,9.90820312 L14.0253906,9.90820312 L19.1132812,24 L16.7988281,24 Z M12.7949219,12.2519531 L10.6953125,18.4335938 L14.953125,18.4335938 L12.8535156,12.2519531 L12.7949219,12.2519531 Z M23.9570312,22.4765625 C25.4511719,22.4765625 26.5839844,21.4804688 26.5839844,20.1523438 L26.5839844,19.3613281 L24.1230469,19.5175781 C22.7558594,19.5957031 22.0332031,20.1230469 22.0332031,21.0117188 C22.0332031,21.8710938 22.7851562,22.4765625 23.9570312,22.4765625 Z M23.3710938,24.1464844 C21.3300781,24.1464844 19.9140625,22.8867188 19.9140625,21.0605469 C19.9140625,19.2636719 21.2910156,18.2089844 23.8496094,18.0527344 L26.5839844,17.8964844 L26.5839844,17.1152344 C26.5839844,15.953125 25.8125,15.328125 24.4746094,15.328125 C23.3710938,15.328125 22.5605469,15.8945312 22.3945312,16.7734375 L20.421875,16.7734375 C20.4804688,14.9375 22.1992188,13.5996094 24.5332031,13.5996094 C27.0527344,13.5996094 28.6835938,14.9179688 28.6835938,16.9589844 L28.6835938,24 L26.6621094,24 L26.6621094,22.3105469 L26.6132812,22.3105469 C26.0371094,23.4140625 24.7578125,24.1464844 23.3710938,24.1464844 Z" id="Aa" fill="#FFFFFF"></path>
        </g>
        <g id="Group-3" transform="translate(4.000000, 41.000000)">
            <g id="Rectangle">
                <use fill="#000000" fill-rule="evenodd" xlink:href="#path-3"></use>
                <rect stroke="#979797" stroke-width="0.5" x="0.25" y="0.25" width="34.5" height="34.5" rx="9"></rect>
            </g>
            <g id="Group" transform="translate(10.000000, 10.000000)" stroke="#FFFFFF" stroke-linecap="round" stroke-linejoin="round">
                <polyline id="Path-10" stroke-width="1.5" transform="translate(5.754628, 9.500002) rotate(-180.000000) translate(-5.754628, -9.500002) " points="3.55271368e-15 4 11.5092561 4 11.5092561 15.0000033"></polyline>
                <polyline id="Path-10" stroke-width="1.5" points="3.5 0 15.0092561 0 15.0092561 11.0000033"></polyline>
                <polyline id="Path-10" points="6 3 12.274213 3 12.274213 9.03769658"></polyline>
            </g>
        </g>
        <g id="Group-5" transform="translate(42.000000, 41.000000)">
            <g id="Rectangle">
                <use fill="#F8F8F8" fill-rule="evenodd" xlink:href="#path-4"></use>
                <rect stroke="#979797" stroke-width="0.5" x="0.25" y="0.25" width="34.5" height="34.5" rx="9"></rect>
            </g>
            <g id="Group" transform="translate(10.000000, 10.000000)" stroke="#000000" stroke-linecap="round" stroke-linejoin="round">
                <polyline id="Path-10" stroke-width="1.5" transform="translate(5.754628, 9.500002) rotate(-180.000000) translate(-5.754628, -9.500002) " points="3.55271368e-15 4 11.5092561 4 11.5092561 15.0000033"></polyline>
                <polyline id="Path-10" stroke-width="1.5" points="3.5 0 15.0092561 0 15.0092561 11.0000033"></polyline>
                <polyline id="Path-10" points="6 3 12.274213 3 12.274213 9.03769658"></polyline>
            </g>
        </g>
    </g>
</svg>
